src/assets/tokens/swbera-wgbera.svg

<svg width="192" height="128" viewBox="0 0 192 128" fill="none" xmlns="http://www.w3.org/2000/svg">
<g clip-path="url(#clip0_19034_63829)">
<circle cx="64" cy="64" r="64" fill="#0F1016"/>
<g clip-path="url(#clip1_19034_63829)">
<path d="M83.5281 77.8481V73.0436C86.4763 72.0293 88.6231 68.8797 88.6231 65.1518C88.6231 61.4238 86.4763 58.2653 83.5281 57.2599V52.4554C86.3045 51.5034 88.375 48.6474 88.604 45.1953H85.2265V46.6634C85.2265 47.7933 84.5397 48.7898 83.5281 49.288V48.6029C83.5281 47.5976 82.6505 46.779 81.5725 46.779H81.4007C80.3227 46.779 79.4447 47.5976 79.4447 48.6029V49.288C78.4335 48.7898 77.7464 47.8022 77.7464 46.6634V45.1953H74.3692C74.5982 48.6474 76.6684 51.5034 79.4447 52.4554V57.2599C76.5061 58.2653 74.3501 61.4149 74.3501 65.1518C74.3501 68.8886 76.4966 72.0382 79.4447 73.0436V77.8481C76.6684 78.8001 74.5982 81.6562 74.3692 85.1081H77.7464V83.6401C77.7464 82.5102 78.4335 81.5136 79.4447 81.0155V81.7006C79.4447 82.7061 80.3227 83.5245 81.4007 83.5245H81.5725C82.6505 83.5245 83.5281 82.7061 83.5281 81.7006V81.0155C84.5397 81.5136 85.2265 82.5013 85.2265 83.6401V85.1081H88.604C88.375 81.6562 86.3045 78.8001 83.5281 77.8481ZM77.7464 67.2515V63.0431C77.7464 61.9132 78.4335 60.9167 79.4447 60.4184V61.1035C79.4447 62.1089 80.3227 62.9275 81.4007 62.9275H81.5725C82.6505 62.9275 83.5281 62.1089 83.5281 61.1035V60.4184C84.5397 60.9167 85.2265 61.9043 85.2265 63.0431V67.2515C85.2265 68.3814 84.5397 69.3779 83.5281 69.8762V69.1911C83.5281 68.1857 82.6505 67.3672 81.5725 67.3672H81.4007C80.3227 67.3672 79.4447 68.1857 79.4447 69.1911V69.8762C78.4431 69.3779 77.7464 68.3904 77.7464 67.2515Z" fill="white"/>
<path d="M104.251 67.7053V62.5894C107.199 61.5751 109.346 58.4255 109.346 54.6975C109.346 50.9696 107.199 47.8111 104.251 46.8057V45.1953H100.177V46.8057C97.2288 47.82 95.0823 50.9696 95.0823 54.6975C95.0823 58.4255 97.2288 61.584 100.177 62.5894V67.7053C97.2288 68.7195 95.0823 71.8692 95.0823 75.5971C95.0823 79.325 97.2288 82.4835 100.177 83.489V85.0992H104.251V83.489C107.199 82.4746 109.346 79.325 109.346 75.5971C109.346 71.8692 107.199 68.7195 104.251 67.7053ZM98.469 56.7973V52.5889C98.469 51.4589 99.1561 50.4625 100.167 49.9642V50.6493C100.167 51.6547 101.045 52.4732 102.123 52.4732H102.286C103.364 52.4732 104.241 51.6547 104.241 50.6493V49.9642C105.253 50.4625 105.94 51.45 105.94 52.5889V56.7973C105.94 57.9272 105.253 58.9237 104.241 59.4219V58.7369C104.241 57.7315 103.364 56.9129 102.286 56.9129H102.114C101.036 56.9129 100.158 57.7315 100.158 58.7369V59.4219C99.1657 58.9237 98.469 57.9361 98.469 56.7973ZM105.949 77.7057C105.949 78.8357 105.262 79.8322 104.251 80.3304V79.325C104.251 78.3196 103.373 77.5011 102.295 77.5011H102.133C101.055 77.5011 100.177 78.3196 100.177 79.325V80.3304C99.1657 79.8322 98.4786 78.8445 98.4786 77.7057V73.4973C98.4786 72.3674 99.1657 71.3709 100.177 70.8726V71.2374C100.177 72.2428 101.055 73.0614 102.133 73.0614H102.305C103.383 73.0614 104.26 72.2428 104.26 71.2374V70.8726C105.272 71.3709 105.959 72.3585 105.959 73.4973V77.7057H105.949Z" fill="white"/>
<path d="M60.1825 61.0769C60.1443 60.8722 60.0966 60.6765 60.0203 60.4897C60.0489 60.4452 66.3838 52.2152 60.5165 47.126C54.6584 42.0368 47.8175 48.6742 47.7794 48.7098C46.6917 48.3894 45.5945 48.1937 44.5069 48.1047C44.5069 48.1047 44.5069 48.1047 44.4974 48.1047C42.2648 47.7577 39.1354 48.1047 39.1354 48.1047C38.0573 48.1937 36.9697 48.3894 35.8916 48.7008C35.8534 48.6652 29.0126 42.0279 23.1546 47.1171C17.2966 52.2063 23.6221 60.4452 23.6507 60.4808C23.584 60.6765 23.5267 60.8722 23.4885 61.068C22.8589 64.5913 18.5369 65.6767 18.5369 71.8158C18.5369 78.0705 23.0496 82.9995 32.2661 82.9995H36.0442C36.0633 83.0172 37.523 84.9571 40.5379 85.0726C40.5379 85.0726 41.2344 85.1437 42.8372 85.0904C46.0334 85.0904 47.5886 83.035 47.5981 83.0084H51.3762C60.5925 83.0084 65.1053 78.0794 65.1053 71.8247C65.134 65.6945 60.812 64.6002 60.1825 61.0769Z" fill="white"/>
</g>
<path d="M128 124C161.137 124 188 97.1371 188 64C188 30.8629 161.137 4 128 4C94.8629 4 68 30.8629 68 64C68 97.1371 94.8629 124 128 124Z" fill="white"/>
<path d="M125.04 0H130.305L130.79 0.025L131.165 0.05C148.05 0.895 164.265 8.63 175.495 21.27C171.55 21.555 167.645 21.165 163.72 21.685C156.865 15.965 148.705 11.865 139.97 9.965C130.005 7.76 119.4 8.35 109.755 11.69C103.345 13.895 97.42 17.31 92.205 21.63C88.255 21.205 84.245 21.45 80.27 21.37C83.6799 17.5499 87.5339 14.1509 91.75 11.245C101.565 4.45 113.135 0.645 125.04 0Z" fill="#D43939"/>
<path d="M175.495 21.27L175.555 21.33C181.215 27.6652 185.564 35.0593 188.35 43.085C185.33 42.68 182.285 43.005 179.235 42.825C175.855 34.625 170.445 27.44 163.72 21.685C167.645 21.165 171.55 21.555 175.495 21.27ZM80.2699 21.37C84.2449 21.45 88.2549 21.205 92.2049 21.63C85.4049 27.34 80.0349 34.685 76.5949 42.87C74.7299 42.88 72.8649 42.89 70.9999 42.91C69.8349 42.885 68.7899 43.03 67.7649 42.35C70.5699 34.64 74.7999 27.48 80.2699 21.37ZM107.095 32.78C110.145 32.025 113.275 32.495 116.04 33.95C117.61 34.785 118.915 35.79 120.6 36.395C123.505 37.505 126.93 37.365 130 37.32C133.12 37.285 136.11 36.455 138.71 34.705C140.825 33.27 142.915 32.555 145.5 32.58C152.45 32.235 159.15 36.56 161.96 42.865C159.995 42.875 158.035 42.88 156.07 42.88C154.47 40.77 152.33 39.12 149.82 38.23C148.15 37.7 146.225 37.815 144.485 37.85C141.945 37.86 139.76 39.46 137.545 40.555C135.075 41.915 132.325 42.71 129.5 42.775C125.735 42.88 121.735 42.53 118.405 40.605C116.57 39.645 114.59 38.125 112.525 37.81C109.62 37.495 106.73 37.685 104.13 39.12C102.34 40.035 100.96 41.445 99.8049 43.065C97.9113 42.8982 96.0108 42.8214 94.1099 42.835C96.5349 37.55 101.35 33.78 107.095 32.78Z" fill="#DB7739"/>
<path d="M67.71 42.4851L67.765 42.3501C68.79 43.0301 69.835 42.8851 71 42.9101C72.865 42.8901 74.73 42.8801 76.595 42.8701C73.265 50.9201 71.91 59.6101 72.38 68.2951C72.2 66.9501 72.235 65.6401 72.295 64.2901C69.555 63.9701 66.765 64.2001 64 64.1301V61.2251C64.405 54.8301 65.55 48.5301 67.71 42.4851ZM94.11 42.8351C96.01 42.8301 97.905 42.8901 99.805 43.0651C97.86 46.3151 97.1 50.1101 98.255 53.7751C99.175 56.5001 101.095 58.1051 102.77 60.4451C102.675 61.6801 102.49 62.9001 102.305 64.1251C100.505 64.1351 98.705 64.1451 96.905 64.1401C96.815 62.9501 97.1 61.6701 96.325 60.6951C94.785 58.4201 93.38 56.2751 92.84 53.5251C92.33 49.8801 92.505 46.2001 94.11 42.8351ZM179.235 42.8251C182.285 43.0051 185.33 42.6801 188.35 43.0851C190.675 49.8551 191.89 56.9851 191.86 64.1451C189.1 64.1401 186.345 64.1301 183.59 64.1001C183.215 61.3201 183.365 58.5201 182.89 55.7551C182.155 51.3201 181.01 46.9601 179.235 42.8251ZM114.605 44.9201C115.55 45.8451 115.28 47.0351 114.405 47.8901C112.11 49.9851 109.47 51.7501 106.87 53.4451C105.89 54.1501 104.5 53.8201 103.345 53.8051C102.43 52.1001 102.55 50.3101 102.79 48.4601C103.925 43.4801 110.945 41.2301 114.605 44.9201ZM144.495 43.2451C145.99 43.1301 147.82 42.9851 149.12 43.8601C151.65 45.3701 153.37 48.0301 153.155 51.0401C153.11 52.3901 152.32 53.2001 151.575 54.2301C149.415 54.3801 148.18 53.1001 146.5 52.0151C144.76 50.7401 142.96 49.5251 141.31 48.1401C140.565 47.4751 139.955 46.4651 140.565 45.5001C141.215 44.0451 143.04 43.4851 144.495 43.2451ZM156.07 42.8801C158.035 42.8801 159.995 42.8751 161.96 42.8651C162.73 44.6801 163.36 46.4951 163.335 48.4951C163.335 50.7351 163.405 53.2451 162.7 55.3901C161.945 57.6501 160.595 59.5451 159.23 61.4701C159.21 62.3601 159.19 63.2501 159.18 64.1401C157.4 64.1194 155.62 64.1211 153.84 64.1451C153.695 62.6851 153.34 60.9001 153.86 59.5051C154.945 57.9701 156.4 56.8901 157.235 55.1451C158.425 53.0101 158.185 50.8451 158.175 48.4901C158.205 46.4201 157.155 44.5701 156.07 42.8801Z" fill="#D2D73C"/>
<path d="M96.905 64.1401C98.705 64.1451 100.505 64.1351 102.305 64.1251C102.24 64.6301 102.17 65.1401 102.105 65.6501C106.935 63.9001 112.2 63.9251 116.885 66.1151C120.675 67.7751 123.675 70.6901 125.76 74.2351C127.815 73.8101 131.08 73.6401 132.43 75.6001C132.235 77.9401 130.135 79.8451 127.775 79.9001C128.03 81.5351 128.195 83.1701 128.07 84.8301C126.46 84.8351 124.855 84.8401 123.245 84.8501C123.555 80.7301 122.26 76.6251 119.335 73.6601C115.92 69.9951 110.605 68.4001 105.73 69.5951C98.88 71.1901 94.125 77.8301 94.795 84.8401C93.25 84.8351 91.71 84.8701 90.165 84.8551L89.96 84.0951C89.755 78.1501 92.35 72.5351 96.89 68.7301C96.92 67.2001 96.915 65.6701 96.905 64.1401ZM183.59 64.1001C186.345 64.1301 189.1 64.1401 191.86 64.1451C191.86 71.1601 190.71 78.1751 188.445 84.8201C185.625 84.7301 182.63 85.0601 179.86 84.6651L179.775 84.3701C181.29 80.3701 182.415 76.2301 182.995 71.9901C183.385 69.3701 183.36 66.7501 183.59 64.1001ZM64 64.1301C66.765 64.2001 69.555 63.9701 72.295 64.2901C72.235 65.6401 72.2 66.9501 72.38 68.2951C73.01 73.9701 74.115 79.5101 76.24 84.8301C73.3 84.8251 70.365 84.8351 67.425 84.8451C65.425 79.0651 64.39 73.0501 64 66.9551V64.1301ZM153.84 64.1451C155.62 64.1211 157.4 64.1194 159.18 64.1401C159.13 68.1351 159.345 72.4501 158.6 76.3651C157.92 79.3651 156.39 82.2251 154.81 84.8451C152.965 84.8501 151.13 84.9001 149.29 84.6751C149.324 84.3444 149.361 84.0161 149.4 83.6901C150.555 81.9951 151.655 80.2951 152.41 78.3801C154.335 73.9551 154.515 68.8601 153.84 64.1451ZM137.265 68.3651C139.93 67.6651 143.8 69.0951 144.4 72.0251C144.625 73.1901 143.9 73.6301 142.915 73.9301C139.96 74.6701 136.85 74.9551 133.81 74.6951C133.535 73.9501 133.165 73.3501 133.415 72.5301C133.98 70.6951 135.45 69.0201 137.265 68.3651Z" fill="#45A446"/>
<path d="M103.575 76.8648C104.12 78.9998 104.71 81.1198 105.095 83.2948C105.86 81.3448 106.18 79.2598 106.91 77.3048C107.5 76.3448 109.685 76.9348 110.695 76.7448C111.715 78.8648 112.03 81.0348 112.565 83.3398C113.23 81.1898 113.77 79.0048 114.38 76.8448C115.823 76.7908 117.267 76.7841 118.71 76.8248C118.92 79.4898 117.475 82.2248 116.935 84.8298C111.59 84.8648 106.24 84.8098 100.895 84.8498C100.226 82.4163 99.5398 79.988 98.835 77.5648C99.745 76.2198 102.17 76.9248 103.575 76.8648Z" fill="#45A446"/>
<path d="M149.4 83.6899C149.361 84.0159 149.324 84.3443 149.29 84.6749C151.13 84.8999 152.965 84.8499 154.81 84.8449C151.883 89.4111 147.689 93.0252 142.74 95.2449C136.075 98.2099 128.635 99.3599 121.425 98.0299C115.78 102.725 107.865 103.925 101.155 100.855C94.6 97.9199 90.145 91.2849 89.96 84.0949L90.165 84.8549C91.71 84.8699 93.25 84.8349 94.795 84.8399C95.23 88.4949 96.905 91.8949 99.73 94.2849C103.955 97.9899 110.26 98.7999 115.295 96.2949C117.476 95.2106 119.349 93.5932 120.739 91.5925C122.128 89.5918 122.99 87.2726 123.245 84.8499C124.855 84.8399 126.46 84.8349 128.07 84.8299C127.795 87.9299 126.9 90.6849 125.365 93.3849C134.305 93.9999 143.695 90.8149 149.4 83.6899ZM179.775 84.3699L179.86 84.6649C182.63 85.0599 185.625 84.7299 188.445 84.8199C185.738 92.7341 181.512 100.044 176.005 106.34C173.165 106.23 170.325 106.3 167.485 106.295C166.565 106.325 165.77 106.115 164.92 105.785C171.44 99.8749 176.595 92.5849 179.775 84.3699ZM76.24 84.8299C79.4923 92.8519 84.5258 100.029 90.96 105.82C89.985 106.115 89.025 106.32 88 106.29C85.275 106.26 82.555 106.27 79.83 106.305C74.3382 100.027 70.1244 92.7373 67.425 84.8449C70.365 84.8349 73.3 84.8249 76.24 84.8299Z" fill="#5050DB"/>
<path d="M100.895 84.8501C106.24 84.8101 111.59 84.8651 116.935 84.8301C116.395 86.6851 115.945 88.5651 115.385 90.4151C115.19 90.9801 115.035 91.6501 114.305 91.6551C113.28 91.7351 112.215 91.7351 111.185 91.6501C110.395 91.6351 110.29 91.0701 110.075 90.4401C109.625 88.9601 109.31 87.4351 108.95 85.9351C108.37 87.8801 108.055 89.8301 107.235 91.7001C105.795 91.6701 104.35 91.6601 102.91 91.6451C102.07 89.4201 101.555 87.1301 100.895 84.8501Z" fill="#5050DB"/>
<path d="M90.9601 105.82L90.9751 105.83C95.9001 110.105 101.43 113.625 107.525 115.98C118.395 120.305 130.69 121.01 142 118.055C150.49 115.855 158.35 111.58 164.92 105.785C165.77 106.115 166.565 106.325 167.485 106.295C170.325 106.3 173.165 106.23 176.005 106.34C166.4 117.35 153.04 124.895 138.615 127.29C134.05 128.22 129.28 127.725 124.5 127.855C120.13 128.025 115.705 127.11 111.48 126.035C99.2401 122.81 88.1501 115.825 79.8301 106.305C82.5551 106.27 85.2751 106.26 88.0001 106.29C89.0251 106.32 89.9851 106.115 90.9601 105.82Z" fill="#7B3A79"/>
</g>
<defs>
<clipPath id="clip0_19034_63829">
<rect width="192" height="128" fill="white"/>
</clipPath>
<clipPath id="clip1_19034_63829">
<rect width="91" height="40" fill="white" transform="translate(18.5369 45.1953)"/>
</clipPath>
</defs>
</svg>

<svg xmlns="http://www.w3.org/2000/svg" viewBox="0 0 192 128"><circle cx="64" cy="64" r="64"/><path fill="#fff" d="M83.528 77.848v-4.804c2.948-1.015 5.095-4.164 5.095-7.892s-2.147-6.887-5.095-7.892v-4.805c2.776-.952 4.847-3.808 5.076-7.26h-3.377v1.468c0 1.13-.687 2.127-1.699 2.625v-.685c0-1.005-.878-1.824-1.956-1.824h-.171c-1.078 0-1.956.819-1.956 1.824v.685c-1.011-.498-1.699-1.486-1.699-2.625v-1.468H74.37c.23 3.452 2.3 6.308 5.076 7.26v4.805c-2.939 1.005-5.095 4.155-5.095 7.892s2.147 6.886 5.095 7.892v4.804c-2.777.952-4.847 3.808-5.076 7.26h3.377V83.64c0-1.13.688-2.126 1.699-2.624v.685c0 1.005.878 1.824 1.956 1.824h.172c1.078 0 1.955-.819 1.955-1.824v-.685c1.012.498 1.698 1.485 1.698 2.624v1.468h3.378c-.229-3.452-2.3-6.308-5.076-7.26m-5.782-10.597v-4.208c0-1.13.688-2.126 1.699-2.625v.685c0 1.006.878 1.825 1.956 1.825h.172c1.078 0 1.955-.82 1.955-1.825v-.685c1.012.499 1.698 1.486 1.698 2.625v4.208c0 1.13-.686 2.127-1.698 2.625v-.685c0-1.005-.878-1.824-1.956-1.824h-.171c-1.078 0-1.956.819-1.956 1.824v.685c-1.002-.498-1.699-1.486-1.699-2.625m26.504.454V62.59c2.948-1.014 5.095-4.163 5.095-7.892 0-3.727-2.147-6.886-5.095-7.891v-1.61h-4.074v1.61c-2.948 1.014-5.095 4.164-5.095 7.892 0 3.727 2.147 6.886 5.095 7.891v5.116c-2.948 1.014-5.095 4.164-5.095 7.892s2.147 6.887 5.095 7.892v1.61h4.074v-1.61c2.948-1.014 5.095-4.164 5.095-7.892s-2.147-6.877-5.095-7.892m-5.782-10.908V52.59c0-1.13.687-2.126 1.698-2.625v.685c0 1.006.878 1.824 1.956 1.824h.163c1.078 0 1.955-.818 1.955-1.824v-.685c1.012.498 1.699 1.486 1.699 2.625v4.208c0 1.13-.687 2.127-1.699 2.625v-.685c0-1.006-.877-1.824-1.955-1.824h-.172c-1.078 0-1.956.819-1.956 1.824v.685c-.992-.498-1.689-1.486-1.689-2.625m7.48 20.909c0 1.13-.687 2.126-1.698 2.624v-1.005c0-1.005-.878-1.824-1.956-1.824h-.162c-1.078 0-1.956.819-1.956 1.824v1.005c-1.011-.498-1.698-1.486-1.698-2.624v-4.209c0-1.13.687-2.126 1.698-2.624v.364c0 1.006.878 1.824 1.956 1.824h.172c1.078 0 1.955-.818 1.955-1.824v-.364c1.012.498 1.699 1.486 1.699 2.624v4.209zm-45.766-16.63a3 3 0 0 0-.163-.587c.029-.045 6.364-8.275.496-13.364-5.858-5.09-12.698 1.548-12.737 1.584a16.3 16.3 0 0 0-3.272-.605h-.01c-2.232-.347-5.362 0-5.362 0a16.6 16.6 0 0 0-3.243.596c-.039-.036-6.88-6.673-12.737-1.584s.467 13.328.496 13.364a4.5 4.5 0 0 0-.163.587c-.63 3.523-4.951 4.609-4.951 10.748 0 6.254 4.513 11.183 13.73 11.183h3.777c.02.018 1.479 1.958 4.494 2.074 0 0 .696.07 2.3.017 3.195 0 4.75-2.055 4.76-2.082h3.778c9.217 0 13.73-4.929 13.73-11.183.028-6.13-4.294-7.225-4.923-10.748"/><circle cx="64" cy="64" r="60" fill="#fff" transform="translate(64)"/><path fill="#d43939" d="M125.04 0h5.265l.485.025.375.025c16.885.845 33.1 8.58 44.33 21.22-3.945.285-7.85-.105-11.775.415-6.855-5.72-15.015-9.82-23.75-11.72-9.965-2.205-20.57-1.615-30.215 1.725-6.41 2.205-12.335 5.62-17.55 9.94-3.95-.425-7.96-.18-11.935-.26a64.3 64.3 0 0 1 11.48-10.125C101.565 4.45 113.135.645 125.04 0"/><path fill="#db7739" d="m175.495 21.27.06.06a64.3 64.3 0 0 1 12.795 21.755c-3.02-.405-6.065-.08-9.115-.26-3.38-8.2-8.79-15.385-15.515-21.14 3.925-.52 7.83-.13 11.775-.415m-95.225.1c3.975.08 7.985-.165 11.935.26-6.8 5.71-12.17 13.055-15.61 21.24-1.865.01-3.73.02-5.595.04-1.165-.025-2.21.12-3.235-.56C70.57 34.64 74.8 27.48 80.27 21.37m26.825 11.41c3.05-.755 6.18-.285 8.945 1.17 1.57.835 2.875 1.84 4.56 2.445 2.905 1.11 6.33.97 9.4.925 3.12-.035 6.11-.865 8.71-2.615 2.115-1.435 4.205-2.15 6.79-2.125 6.95-.345 13.65 3.98 16.46 10.285-1.965.01-3.925.015-5.89.015-1.6-2.11-3.74-3.76-6.25-4.65-1.67-.53-3.595-.415-5.335-.38-2.54.01-4.725 1.61-6.94 2.705-2.47 1.36-5.22 2.155-8.045 2.22-3.765.105-7.765-.245-11.095-2.17-1.835-.96-3.815-2.48-5.88-2.795-2.905-.315-5.795-.125-8.395 1.31-1.79.915-3.17 2.325-4.325 3.945a60 60 0 0 0-5.695-.23c2.425-5.285 7.24-9.055 12.985-10.055"/><path fill="#d2d73c" d="m67.71 42.485.055-.135c1.025.68 2.07.535 3.235.56 1.865-.02 3.73-.03 5.595-.04-3.33 8.05-4.685 16.74-4.215 25.425-.18-1.345-.145-2.655-.085-4.005-2.74-.32-5.53-.09-8.295-.16v-2.905c.405-6.395 1.55-12.695 3.71-18.74m26.4.35c1.9-.005 3.795.055 5.695.23-1.945 3.25-2.705 7.045-1.55 10.71.92 2.725 2.84 4.33 4.515 6.67-.095 1.235-.28 2.455-.465 3.68-1.8.01-3.6.02-5.4.015-.09-1.19.195-2.47-.58-3.445-1.54-2.275-2.945-4.42-3.485-7.17-.51-3.645-.335-7.325 1.27-10.69m85.125-.01c3.05.18 6.095-.145 9.115.26 2.325 6.77 3.54 13.9 3.51 21.06-2.76-.005-5.515-.015-8.27-.045-.375-2.78-.225-5.58-.7-8.345-.735-4.435-1.88-8.795-3.655-12.93m-64.63 2.095c.945.925.675 2.115-.2 2.97-2.295 2.095-4.935 3.86-7.535 5.555-.98.705-2.37.375-3.525.36-.915-1.705-.795-3.495-.555-5.345 1.135-4.98 8.155-7.23 11.815-3.54m29.89-1.675c1.495-.115 3.325-.26 4.625.615 2.53 1.51 4.25 4.17 4.035 7.18-.045 1.35-.835 2.16-1.58 3.19-2.16.15-3.395-1.13-5.075-2.215-1.74-1.275-3.54-2.49-5.19-3.875-.745-.665-1.355-1.675-.745-2.64.65-1.455 2.475-2.015 3.93-2.255m11.575-.365c1.965 0 3.925-.005 5.89-.015.77 1.815 1.4 3.63 1.375 5.63 0 2.24.07 4.75-.635 6.895-.755 2.26-2.105 4.155-3.47 6.08-.02.89-.04 1.78-.05 2.67q-2.67-.031-5.34.005c-.145-1.46-.5-3.245.02-4.64 1.085-1.535 2.54-2.615 3.375-4.36 1.19-2.135.95-4.3.94-6.655.03-2.07-1.02-3.92-2.105-5.61"/><path fill="#45a446" d="M96.905 64.14c1.8.005 3.6-.005 5.4-.015-.065.505-.135 1.015-.2 1.525 4.83-1.75 10.095-1.725 14.78.465 3.79 1.66 6.79 4.575 8.875 8.12 2.055-.425 5.32-.595 6.67 1.365-.195 2.34-2.295 4.245-4.655 4.3.255 1.635.42 3.27.295 4.93-1.61.005-3.215.01-4.825.02.31-4.12-.985-8.225-3.91-11.19-3.415-3.665-8.73-5.26-13.605-4.065-6.85 1.595-11.605 8.235-10.935 15.245-1.545-.005-3.085.03-4.63.015l-.205-.76c-.205-5.945 2.39-11.56 6.93-15.365.03-1.53.025-3.06.015-4.59m86.685-.04c2.755.03 5.51.04 8.27.045 0 7.015-1.15 14.03-3.415 20.675-2.82-.09-5.815.24-8.585-.155l-.085-.295c1.515-4 2.64-8.14 3.22-12.38.39-2.62.365-5.24.595-7.89M64 64.13c2.765.07 5.555-.16 8.295.16-.06 1.35-.095 2.66.085 4.005.63 5.675 1.735 11.215 3.86 16.535-2.94-.005-5.875.005-8.815.015-2-5.78-3.035-11.795-3.425-17.89zm89.84.015q2.67-.036 5.34-.005c-.05 3.995.165 8.31-.58 12.225-.68 3-2.21 5.86-3.79 8.48-1.845.005-3.68.055-5.52-.17q.051-.496.11-.985c1.155-1.695 2.255-3.395 3.01-5.31 1.925-4.425 2.105-9.52 1.43-14.235m-16.575 4.22c2.665-.7 6.535.73 7.135 3.66.225 1.165-.5 1.605-1.485 1.905-2.955.74-6.065 1.025-9.105.765-.275-.745-.645-1.345-.395-2.165.565-1.835 2.035-3.51 3.85-4.165"/><path fill="#45a446" d="M103.575 76.865c.545 2.135 1.135 4.255 1.52 6.43.765-1.95 1.085-4.035 1.815-5.99.59-.96 2.775-.37 3.785-.56 1.02 2.12 1.335 4.29 1.87 6.595.665-2.15 1.205-4.335 1.815-6.495a66 66 0 0 1 4.33-.02c.21 2.665-1.235 5.4-1.775 8.005-5.345.035-10.695-.02-16.04.02a506 506 0 0 0-2.06-7.285c.91-1.345 3.335-.64 4.74-.7"/><path fill="#5050db" d="M149.4 83.69q-.059.489-.11.985c1.84.225 3.675.175 5.52.17a27.9 27.9 0 0 1-12.07 10.4c-6.665 2.965-14.105 4.115-21.315 2.785-5.645 4.695-13.56 5.895-20.27 2.825-6.555-2.935-11.01-9.57-11.195-16.76l.205.76c1.545.015 3.085-.02 4.63-.015.435 3.655 2.11 7.055 4.935 9.445 4.225 3.705 10.53 4.515 15.565 2.01a14.47 14.47 0 0 0 7.95-11.445c1.61-.01 3.215-.015 4.825-.02-.275 3.1-1.17 5.855-2.705 8.555 8.94.615 18.33-2.57 24.035-9.695m30.375.68.085.295c2.77.395 5.765.065 8.585.155a64.3 64.3 0 0 1-12.44 21.52c-2.84-.11-5.68-.04-8.52-.045-.92.03-1.715-.18-2.565-.51 6.52-5.91 11.675-13.2 14.855-21.415m-103.535.46a57.1 57.1 0 0 0 14.72 20.99c-.975.295-1.935.5-2.96.47-2.725-.03-5.445-.02-8.17.015a64.1 64.1 0 0 1-12.405-21.46c2.94-.01 5.875-.02 8.815-.015"/><path fill="#5050db" d="M100.895 84.85c5.345-.04 10.695.015 16.04-.02-.54 1.855-.99 3.735-1.55 5.585-.195.565-.35 1.235-1.08 1.24-1.025.08-2.09.08-3.12-.005-.79-.015-.895-.58-1.11-1.21-.45-1.48-.765-3.005-1.125-4.505-.58 1.945-.895 3.895-1.715 5.765-1.44-.03-2.885-.04-4.325-.055-.84-2.225-1.355-4.515-2.015-6.795"/><path fill="#7b3a79" d="m90.96 105.82.015.01c4.925 4.275 10.455 7.795 16.55 10.15 10.87 4.325 23.165 5.03 34.475 2.075 8.49-2.2 16.35-6.475 22.92-12.27.85.33 1.645.54 2.565.51 2.84.005 5.68-.065 8.52.045-9.605 11.01-22.965 18.555-37.39 20.95-4.565.93-9.335.435-14.115.565-4.37.17-8.795-.745-13.02-1.82-12.24-3.225-23.33-10.21-31.65-19.73 2.725-.035 5.445-.045 8.17-.015 1.025.03 1.985-.175 2.96-.47"/></svg>
